X: 461
T: Paddy Ryan's dream
C:anon.
O:Ireland
B:Francis O'Neill: "The Dance Music of Ireland" (1907) no. 461
R:Reel
Z:Transcribed by Frank Nordberg - http://www.musicaviva.com
F:http://www.musicaviva.com/abc/tunes/ireland/oneill-1001/oneill-1001-046
1.abc
M:C|
L:1/8
K:Am
A>E (3.E.E.E cABG|EGDC B,CDB,|(3.A,.A,.A, A,B, CDEG|[1cAB^G ABcA:|[2cAB^G
 (3.A.A.A A2H||B2|Aaa^g aecA|
Ggg^f gdBG|Aaa^g ae= fd|edcB (3cBA BG|Aaa^g aecA|Ggg^f gdBG|AcBd cedf|e
dcB ABcB"_D.C."||
W:
W:
W:  From Musica Viva - http://www.musicaviva.com
W:  the Internet center for free sheet music downloads.


